dist/img/blog/7.svg

<svg width="25" height="25" viewBox="0 0 25 25" fill="none" xmlns="http://www.w3.org/2000/svg">
<path fill-rule="evenodd" clip-rule="evenodd" d="M5.2499 21.0003C5.87095 21.0003 6.37491 20.4963 6.37491 19.8753C6.37491 19.2542 5.87095 18.7503 5.2499 18.7503C4.62885 18.7503 4.12488 19.2542 4.12488 19.8753C4.12488 20.4963 4.62885 21.0003 5.2499 21.0003ZM5.2499 17.6252C6.49183 17.6252 7.49993 18.6333 7.49993 19.8753C7.49993 20.4963 8.0039 21.0003 8.62495 21.0003H15.375C16.5686 21.0003 17.7128 20.5266 18.5566 19.6818C19.4014 18.838 19.8751 17.6938 19.8751 16.5002V9.75013C20.2384 9.75013 20.5952 9.57356 20.8112 9.24946C21.1553 8.73199 21.016 8.03323 20.4995 7.68906C20.4995 7.68906 16.536 5.04636 14.6831 3.81113C13.8901 3.28237 12.9518 2.99999 11.9979 2.99999C11.0438 2.99999 10.1112 3.28234 9.31684 3.81113L3.50051 7.68906C2.98412 8.03341 2.84462 8.73199 3.1888 9.24946C3.40477 9.57356 3.76152 9.75013 4.12486 9.75013V16.5002C4.12486 17.1213 4.62883 17.6252 5.24987 17.6252H5.2499ZM15.375 10.8751C15.375 10.2541 14.8711 9.75013 14.25 9.75013H9.74996C9.12891 9.75013 8.62495 10.2541 8.62495 10.8751V15.3752C8.62495 15.9963 9.12891 16.5002 9.74996 16.5002H14.25C14.8711 16.5002 15.375 15.9963 15.375 15.3752V10.8751ZM13.125 12.0002V14.2502H10.875V12.0002H13.125Z" fill="#202125"/>
</svg>

<svg width="25" height="25" viewBox="0 0 25 25" fill="none" xmlns="http://www.w3.org/2000/svg"><path fill-rule="evenodd" clip-rule="evenodd" d="M5.25 21a1.125 1.125 0 100-2.25 1.125 1.125 0 000 2.25zm0-3.375a2.251 2.251 0 012.25 2.25c0 .621.504 1.125 1.125 1.125h6.75a4.495 4.495 0 003.182-1.318 4.495 4.495 0 001.318-3.182V9.75a1.124 1.124 0 00.625-2.06l-5.817-3.88a4.849 4.849 0 00-5.366 0L3.5 7.69a1.126 1.126 0 00.624 2.061v6.75c0 .621.504 1.125 1.125 1.125zm10.125-6.75c0-.62-.504-1.125-1.125-1.125h-4.5c-.621 0-1.125.504-1.125 1.125v4.5c0 .621.504 1.125 1.125 1.125h4.5c.621 0 1.125-.504 1.125-1.125v-4.5zM13.125 12v2.25h-2.25V12h2.25z" fill="#202125"/></svg>
